( Code generated by grill.py widget )
( by Alex Bobotek - 2018 )
G17 G21 G90 G64 P0.05 M3 S2000 M7
G0 Z4.0000 F500
( 40.0000x80.0000 elliptical grill at 3.0000,4.0000 with 1.800 diameter holes spaced 2.500 and 47.014 percent open area)
G83 X-15.7500 Y-6.8253 Z-4.0000 Q10.0000 R4.0000
G83 X-15.7500 Y-2.4952
G83 X-15.7500 Y1.8349
G83 X-15.7500 Y6.1651
G83 X-15.7500 Y10.4952
G83 X-15.7500 Y14.8253
G83 X-13.2500 Y-15.4856
G83 X-14.5000 Y-13.3205
G83 X-13.2500 Y-11.1554
G83 X-14.5000 Y-8.9904
G83 X-13.2500 Y-6.8253
G83 X-14.5000 Y-4.6603
G83 X-13.2500 Y-2.4952
G83 X-14.5000 Y-0.3301
G83 X-13.2500 Y1.8349
G83 X-14.5000 Y4.0000
G83 X-13.2500 Y6.1651
G83 X-14.5000 Y8.3301
G83 X-13.2500 Y10.4952
G83 X-14.5000 Y12.6603
G83 X-13.2500 Y14.8253
G83 X-14.5000 Y16.9904
G83 X-13.2500 Y19.1554
G83 X-14.5000 Y21.3205
G83 X-13.2500 Y23.4856
G83 X-10.7500 Y-24.1458
G83 X-12.0000 Y-21.9808
G83 X-10.7500 Y-19.8157
G83 X-12.0000 Y-17.6506
G83 X-10.7500 Y-15.4856
G83 X-12.0000 Y-13.3205
G83 X-10.7500 Y-11.1554
G83 X-12.0000 Y-8.9904
G83 X-10.7500 Y-6.8253
G83 X-12.0000 Y-4.6603
G83 X-10.7500 Y-2.4952
G83 X-12.0000 Y-0.3301
G83 X-10.7500 Y1.8349
G83 X-12.0000 Y4.0000
G83 X-10.7500 Y6.1651
G83 X-12.0000 Y8.3301
G83 X-10.7500 Y10.4952
G83 X-12.0000 Y12.6603
G83 X-10.7500 Y14.8253
G83 X-12.0000 Y16.9904
G83 X-10.7500 Y19.1554
G83 X-12.0000 Y21.3205
G83 X-10.7500 Y23.4856
G83 X-12.0000 Y25.6506
G83 X-10.7500 Y27.8157
G83 X-12.0000 Y29.9808
G83 X-10.7500 Y32.1458
G83 X-8.2500 Y-28.4760
G83 X-9.5000 Y-26.3109
G83 X-8.2500 Y-24.1458
G83 X-9.5000 Y-21.9808
G83 X-8.2500 Y-19.8157
G83 X-9.5000 Y-17.6506
G83 X-8.2500 Y-15.4856
G83 X-9.5000 Y-13.3205
G83 X-8.2500 Y-11.1554
G83 X-9.5000 Y-8.9904
G83 X-8.2500 Y-6.8253
G83 X-9.5000 Y-4.6603
G83 X-8.2500 Y-2.4952
G83 X-9.5000 Y-0.3301
G83 X-8.2500 Y1.8349
G83 X-9.5000 Y4.0000
G83 X-8.2500 Y6.1651
G83 X-9.5000 Y8.3301
G83 X-8.2500 Y10.4952
G83 X-9.5000 Y12.6603
G83 X-8.2500 Y14.8253
G83 X-9.5000 Y16.9904
G83 X-8.2500 Y19.1554
G83 X-9.5000 Y21.3205
G83 X-8.2500 Y23.4856
G83 X-9.5000 Y25.6506
G83 X-8.2500 Y27.8157
G83 X-9.5000 Y29.9808
G83 X-8.2500 Y32.1458
G83 X-9.5000 Y34.3109
G83 X-8.2500 Y36.4760
G83 X-5.7500 Y-28.4760
G83 X-7.0000 Y-26.3109
G83 X-5.7500 Y-24.1458
G83 X-7.0000 Y-21.9808
G83 X-5.7500 Y-19.8157
G83 X-7.0000 Y-17.6506
G83 X-5.7500 Y-15.4856
G83 X-7.0000 Y-13.3205
G83 X-5.7500 Y-11.1554
G83 X-7.0000 Y-8.9904
G83 X-5.7500 Y-6.8253
G83 X-7.0000 Y-4.6603
G83 X-5.7500 Y-2.4952
G83 X-7.0000 Y-0.3301
G83 X-5.7500 Y1.8349
G83 X-7.0000 Y4.0000
G83 X-5.7500 Y6.1651
G83 X-7.0000 Y8.3301
G83 X-5.7500 Y10.4952
G83 X-7.0000 Y12.6603
G83 X-5.7500 Y14.8253
G83 X-7.0000 Y16.9904
G83 X-5.7500 Y19.1554
G83 X-7.0000 Y21.3205
G83 X-5.7500 Y23.4856
G83 X-7.0000 Y25.6506
G83 X-5.7500 Y27.8157
G83 X-7.0000 Y29.9808
G83 X-5.7500 Y32.1458
G83 X-7.0000 Y34.3109
G83 X-5.7500 Y36.4760
G83 X-3.2500 Y-32.8061
G83 X-4.5000 Y-30.6410
G83 X-3.2500 Y-28.4760
G83 X-4.5000 Y-26.3109
G83 X-3.2500 Y-24.1458
G83 X-4.5000 Y-21.9808
G83 X-3.2500 Y-19.8157
G83 X-4.5000 Y-17.6506
G83 X-3.2500 Y-15.4856
G83 X-4.5000 Y-13.3205
G83 X-3.2500 Y-11.1554
G83 X-4.5000 Y-8.9904
G83 X-3.2500 Y-6.8253
G83 X-4.5000 Y-4.6603
G83 X-3.2500 Y-2.4952
G83 X-4.5000 Y-0.3301
G83 X-3.2500 Y1.8349
G83 X-4.5000 Y4.0000
G83 X-3.2500 Y6.1651
G83 X-4.5000 Y8.3301
G83 X-3.2500 Y10.4952
G83 X-4.5000 Y12.6603
G83 X-3.2500 Y14.8253
G83 X-4.5000 Y16.9904
G83 X-3.2500 Y19.1554
G83 X-4.5000 Y21.3205
G83 X-3.2500 Y23.4856
G83 X-4.5000 Y25.6506
G83 X-3.2500 Y27.8157
G83 X-4.5000 Y29.9808
G83 X-3.2500 Y32.1458
G83 X-4.5000 Y34.3109
G83 X-3.2500 Y36.4760
G83 X-4.5000 Y38.6410
G83 X-3.2500 Y40.8061
G83 X-0.7500 Y-32.8061
G83 X-2.0000 Y-30.6410
G83 X-0.7500 Y-28.4760
G83 X-2.0000 Y-26.3109
G83 X-0.7500 Y-24.1458
G83 X-2.0000 Y-21.9808
G83 X-0.7500 Y-19.8157
G83 X-2.0000 Y-17.6506
G83 X-0.7500 Y-15.4856
G83 X-2.0000 Y-13.3205
G83 X-0.7500 Y-11.1554
G83 X-2.0000 Y-8.9904
G83 X-0.7500 Y-6.8253
G83 X-2.0000 Y-4.6603
G83 X-0.7500 Y-2.4952
G83 X-2.0000 Y-0.3301
G83 X-0.7500 Y1.8349
G83 X-2.0000 Y4.0000
G83 X-0.7500 Y6.1651
G83 X-2.0000 Y8.3301
G83 X-0.7500 Y10.4952
G83 X-2.0000 Y12.6603
G83 X-0.7500 Y14.8253
G83 X-2.0000 Y16.9904
G83 X-0.7500 Y19.1554
G83 X-2.0000 Y21.3205
G83 X-0.7500 Y23.4856
G83 X-2.0000 Y25.6506
G83 X-0.7500 Y27.8157
G83 X-2.0000 Y29.9808
G83 X-0.7500 Y32.1458
G83 X-2.0000 Y34.3109
G83 X-0.7500 Y36.4760
G83 X-2.0000 Y38.6410
G83 X-0.7500 Y40.8061
G83 X0.5000 Y-34.9711
G83 X1.7500 Y-32.8061
G83 X0.5000 Y-30.6410
G83 X1.7500 Y-28.4760
G83 X0.5000 Y-26.3109
G83 X1.7500 Y-24.1458
G83 X0.5000 Y-21.9808
G83 X1.7500 Y-19.8157
G83 X0.5000 Y-17.6506
G83 X1.7500 Y-15.4856
G83 X0.5000 Y-13.3205
G83 X1.7500 Y-11.1554
G83 X0.5000 Y-8.9904
G83 X1.7500 Y-6.8253
G83 X0.5000 Y-4.6603
G83 X1.7500 Y-2.4952
G83 X0.5000 Y-0.3301
G83 X1.7500 Y1.8349
G83 X0.5000 Y4.0000
G83 X1.7500 Y6.1651
G83 X0.5000 Y8.3301
G83 X1.7500 Y10.4952
G83 X0.5000 Y12.6603
G83 X1.7500 Y14.8253
G83 X0.5000 Y16.9904
G83 X1.7500 Y19.1554
G83 X0.5000 Y21.3205
G83 X1.7500 Y23.4856
G83 X0.5000 Y25.6506
G83 X1.7500 Y27.8157
G83 X0.5000 Y29.9808
G83 X1.7500 Y32.1458
G83 X0.5000 Y34.3109
G83 X1.7500 Y36.4760
G83 X0.5000 Y38.6410
G83 X1.7500 Y40.8061
G83 X0.5000 Y42.9711
G83 X3.0000 Y-34.9711
G83 X4.2500 Y-32.8061
G83 X3.0000 Y-30.6410
G83 X4.2500 Y-28.4760
G83 X3.0000 Y-26.3109
G83 X4.2500 Y-24.1458
G83 X3.0000 Y-21.9808
G83 X4.2500 Y-19.8157
G83 X3.0000 Y-17.6506
G83 X4.2500 Y-15.4856
G83 X3.0000 Y-13.3205
G83 X4.2500 Y-11.1554
G83 X3.0000 Y-8.9904
G83 X4.2500 Y-6.8253
G83 X3.0000 Y-4.6603
G83 X4.2500 Y-2.4952
G83 X3.0000 Y-0.3301
G83 X4.2500 Y1.8349
G83 X3.0000 Y4.0000
G83 X4.2500 Y6.1651
G83 X3.0000 Y8.3301
G83 X4.2500 Y10.4952
G83 X3.0000 Y12.6603
G83 X4.2500 Y14.8253
G83 X3.0000 Y16.9904
G83 X4.2500 Y19.1554
G83 X3.0000 Y21.3205
G83 X4.2500 Y23.4856
G83 X3.0000 Y25.6506
G83 X4.2500 Y27.8157
G83 X3.0000 Y29.9808
G83 X4.2500 Y32.1458
G83 X3.0000 Y34.3109
G83 X4.2500 Y36.4760
G83 X3.0000 Y38.6410
G83 X4.2500 Y40.8061
G83 X3.0000 Y42.9711
G83 X5.5000 Y-34.9711
G83 X6.7500 Y-32.8061
G83 X5.5000 Y-30.6410
G83 X6.7500 Y-28.4760
G83 X5.5000 Y-26.3109
G83 X6.7500 Y-24.1458
G83 X5.5000 Y-21.9808
G83 X6.7500 Y-19.8157
G83 X5.5000 Y-17.6506
G83 X6.7500 Y-15.4856
G83 X5.5000 Y-13.3205
G83 X6.7500 Y-11.1554
G83 X5.5000 Y-8.9904
G83 X6.7500 Y-6.8253
G83 X5.5000 Y-4.6603
G83 X6.7500 Y-2.4952
G83 X5.5000 Y-0.3301
G83 X6.7500 Y1.8349
G83 X5.5000 Y4.0000
G83 X6.7500 Y6.1651
G83 X5.5000 Y8.3301
G83 X6.7500 Y10.4952
G83 X5.5000 Y12.6603
G83 X6.7500 Y14.8253
G83 X5.5000 Y16.9904
G83 X6.7500 Y19.1554
G83 X5.5000 Y21.3205
G83 X6.7500 Y23.4856
G83 X5.5000 Y25.6506
G83 X6.7500 Y27.8157
G83 X5.5000 Y29.9808
G83 X6.7500 Y32.1458
G83 X5.5000 Y34.3109
G83 X6.7500 Y36.4760
G83 X5.5000 Y38.6410
G83 X6.7500 Y40.8061
G83 X5.5000 Y42.9711
G83 X9.2500 Y-32.8061
G83 X8.0000 Y-30.6410
G83 X9.2500 Y-28.4760
G83 X8.0000 Y-26.3109
G83 X9.2500 Y-24.1458
G83 X8.0000 Y-21.9808
G83 X9.2500 Y-19.8157
G83 X8.0000 Y-17.6506
G83 X9.2500 Y-15.4856
G83 X8.0000 Y-13.3205
G83 X9.2500 Y-11.1554
G83 X8.0000 Y-8.9904
G83 X9.2500 Y-6.8253
G83 X8.0000 Y-4.6603
G83 X9.2500 Y-2.4952
G83 X8.0000 Y-0.3301
G83 X9.2500 Y1.8349
G83 X8.0000 Y4.0000
G83 X9.2500 Y6.1651
G83 X8.0000 Y8.3301
G83 X9.2500 Y10.4952
G83 X8.0000 Y12.6603
G83 X9.2500 Y14.8253
G83 X8.0000 Y16.9904
G83 X9.2500 Y19.1554
G83 X8.0000 Y21.3205
G83 X9.2500 Y23.4856
G83 X8.0000 Y25.6506
G83 X9.2500 Y27.8157
G83 X8.0000 Y29.9808
G83 X9.2500 Y32.1458
G83 X8.0000 Y34.3109
G83 X9.2500 Y36.4760
G83 X8.0000 Y38.6410
G83 X9.2500 Y40.8061
G83 X10.5000 Y-30.6410
G83 X11.7500 Y-28.4760
G83 X10.5000 Y-26.3109
G83 X11.7500 Y-24.1458
G83 X10.5000 Y-21.9808
G83 X11.7500 Y-19.8157
G83 X10.5000 Y-17.6506
G83 X11.7500 Y-15.4856
G83 X10.5000 Y-13.3205
G83 X11.7500 Y-11.1554
G83 X10.5000 Y-8.9904
G83 X11.7500 Y-6.8253
G83 X10.5000 Y-4.6603
G83 X11.7500 Y-2.4952
G83 X10.5000 Y-0.3301
G83 X11.7500 Y1.8349
G83 X10.5000 Y4.0000
G83 X11.7500 Y6.1651
G83 X10.5000 Y8.3301
G83 X11.7500 Y10.4952
G83 X10.5000 Y12.6603
G83 X11.7500 Y14.8253
G83 X10.5000 Y16.9904
G83 X11.7500 Y19.1554
G83 X10.5000 Y21.3205
G83 X11.7500 Y23.4856
G83 X10.5000 Y25.6506
G83 X11.7500 Y27.8157
G83 X10.5000 Y29.9808
G83 X11.7500 Y32.1458
G83 X10.5000 Y34.3109
G83 X11.7500 Y36.4760
G83 X10.5000 Y38.6410
G83 X14.2500 Y-28.4760
G83 X13.0000 Y-26.3109
G83 X14.2500 Y-24.1458
G83 X13.0000 Y-21.9808
G83 X14.2500 Y-19.8157
G83 X13.0000 Y-17.6506
G83 X14.2500 Y-15.4856
G83 X13.0000 Y-13.3205
G83 X14.2500 Y-11.1554
G83 X13.0000 Y-8.9904
G83 X14.2500 Y-6.8253
G83 X13.0000 Y-4.6603
G83 X14.2500 Y-2.4952
G83 X13.0000 Y-0.3301
G83 X14.2500 Y1.8349
G83 X13.0000 Y4.0000
G83 X14.2500 Y6.1651
G83 X13.0000 Y8.3301
G83 X14.2500 Y10.4952
G83 X13.0000 Y12.6603
G83 X14.2500 Y14.8253
G83 X13.0000 Y16.9904
G83 X14.2500 Y19.1554
G83 X13.0000 Y21.3205
G83 X14.2500 Y23.4856
G83 X13.0000 Y25.6506
G83 X14.2500 Y27.8157
G83 X13.0000 Y29.9808
G83 X14.2500 Y32.1458
G83 X13.0000 Y34.3109
G83 X14.2500 Y36.4760
G83 X15.5000 Y-26.3109
G83 X16.7500 Y-24.1458
G83 X15.5000 Y-21.9808
G83 X16.7500 Y-19.8157
G83 X15.5000 Y-17.6506
G83 X16.7500 Y-15.4856
G83 X15.5000 Y-13.3205
G83 X16.7500 Y-11.1554
G83 X15.5000 Y-8.9904
G83 X16.7500 Y-6.8253
G83 X15.5000 Y-4.6603
G83 X16.7500 Y-2.4952
G83 X15.5000 Y-0.3301
G83 X16.7500 Y1.8349
G83 X15.5000 Y4.0000
G83 X16.7500 Y6.1651
G83 X15.5000 Y8.3301
G83 X16.7500 Y10.4952
G83 X15.5000 Y12.6603
G83 X16.7500 Y14.8253
G83 X15.5000 Y16.9904
G83 X16.7500 Y19.1554
G83 X15.5000 Y21.3205
G83 X16.7500 Y23.4856
G83 X15.5000 Y25.6506
G83 X16.7500 Y27.8157
G83 X15.5000 Y29.9808
G83 X16.7500 Y32.1458
G83 X15.5000 Y34.3109
G83 X18.0000 Y-21.9808
G83 X18.0000 Y-17.6506
G83 X19.2500 Y-15.4856
G83 X18.0000 Y-13.3205
G83 X19.2500 Y-11.1554
G83 X18.0000 Y-8.9904
G83 X19.2500 Y-6.8253
G83 X18.0000 Y-4.6603
G83 X19.2500 Y-2.4952
G83 X18.0000 Y-0.3301
G83 X19.2500 Y1.8349
G83 X18.0000 Y4.0000
G83 X19.2500 Y6.1651
G83 X18.0000 Y8.3301
G83 X19.2500 Y10.4952
G83 X18.0000 Y12.6603
G83 X19.2500 Y14.8253
G83 X18.0000 Y16.9904
G83 X19.2500 Y19.1554
G83 X18.0000 Y21.3205
G83 X19.2500 Y23.4856
G83 X18.0000 Y25.6506
G83 X18.0000 Y29.9808
G83 X20.5000 Y-13.3205
G83 X20.5000 Y-8.9904
G83 X21.7500 Y-6.8253
G83 X20.5000 Y-4.6603
G83 X21.7500 Y-2.4952
G83 X20.5000 Y-0.3301
G83 X21.7500 Y1.8349
G83 X20.5000 Y4.0000
G83 X21.7500 Y6.1651
G83 X20.5000 Y8.3301
G83 X21.7500 Y10.4952
G83 X20.5000 Y12.6603
G83 X21.7500 Y14.8253
G83 X20.5000 Y16.9904
G83 X20.5000 Y21.3205
M5 M9 M2
